public/img/festival-doc-2.svg

<svg width="102" height="102" viewBox="0 0 102 102" fill="none" xmlns="http://www.w3.org/2000/svg">
<g clip-path="url(#clip0)">
<path d="M57.0362 98.8929L73.9397 89.1342C83.9021 83.3827 90.0393 72.7531 90.0393 61.2496V19.5923C90.0393 17.4465 88.3642 15.663 86.2209 15.5538C68.1073 14.6312 58.2706 7.25436 53.8789 2.71237C52.3084 1.08806 49.6901 1.08806 48.1194 2.71237C43.7278 7.25436 33.8912 14.6312 15.7774 15.5538C13.6343 15.663 11.959 17.4465 11.959 19.5923V61.2496C11.959 72.7531 18.0962 83.3827 28.0586 89.1342L44.962 98.8929C48.6982 101.05 53.3005 101.05 57.0362 98.8929Z" fill="#EAB14D"/>
<path d="M39.3281 84.6055C31.7206 84.6055 24.497 82.9623 17.9922 80.0126C20.6184 83.6757 24.025 86.8054 28.0596 89.1346L44.963 98.8934C48.6988 101.05 53.3011 101.05 57.0368 98.8934L73.9403 89.1346C83.9027 83.3831 90.0399 72.7535 90.0399 61.2501V43.0781C85.3071 66.7605 64.4027 84.6055 39.3281 84.6055Z" fill="#E7A52E"/>
<path d="M51.0002 92.4616C50.2948 92.4616 49.5989 92.2751 48.9878 91.9225L32.0844 82.1637C24.6364 77.8638 20.0098 69.8502 20.0098 61.2504V25.1003C20.0098 24.089 20.7603 23.2313 21.7636 23.1052C35.18 21.4172 44.2 16.4287 49.7578 12.0445C50.4868 11.4695 51.5136 11.4695 52.2426 12.0445C57.8007 16.4287 66.8207 21.417 80.2369 23.1052C81.2402 23.2315 81.9907 24.0892 81.9907 25.1003V61.2504C81.9907 69.8504 77.364 77.864 69.9161 82.1639L53.0126 91.9225C52.4016 92.2753 51.7059 92.4616 51.0002 92.4616Z" fill="#FFE07D"/>
<path d="M32.4852 77.7643C30.3579 77.7643 28.2612 77.633 26.2012 77.3833C27.8773 79.2535 29.8524 80.8764 32.0832 82.1642L48.9866 91.923C49.5977 92.2758 50.2936 92.4621 50.999 92.4621C51.7045 92.4621 52.4004 92.2756 53.0114 91.923L69.9149 82.1644C77.3628 77.8645 81.9895 69.8509 81.9895 61.2509V41.0508C75.5586 62.296 55.8297 77.7643 32.4852 77.7643Z" fill="#FFD064"/>
<path d="M44.9624 70.1514C43.4172 70.1514 41.8722 69.5621 40.6932 68.3833L28.618 56.3081C26.2601 53.9502 26.2601 50.1272 28.618 47.7694C30.9759 45.4115 34.7986 45.4115 37.1563 47.7694L44.9622 55.5755L64.8434 35.6942C67.2012 33.3363 71.024 33.3363 73.3817 35.6942C75.7395 38.052 75.7395 41.875 73.3817 44.2329L49.2313 68.3833C48.0529 69.5621 46.5077 70.1514 44.9624 70.1514Z" fill="#95D6A4"/>
<path d="M73.382 35.6929C72.7707 35.0816 72.0607 34.6302 71.3034 34.3359C72.1444 36.4994 71.6931 39.0495 69.9465 40.7961L45.7963 64.9465C44.6175 66.1253 43.0723 66.7146 41.5271 66.7146C39.9819 66.7146 38.4368 66.1253 37.2578 64.9465L40.6933 68.3819C41.8721 69.5608 43.4173 70.1501 44.9625 70.1501C46.5078 70.1501 48.0528 69.5608 49.2318 68.3819L73.3822 44.2316C75.7398 41.8737 75.7398 38.0507 73.382 35.6929Z" fill="#78C2A4"/>
<path d="M90.0404 35.5209C90.8656 35.5209 91.5346 34.8521 91.5346 34.0267V19.5927C91.5346 16.6415 89.2341 14.2121 86.2971 14.0621C68.5768 13.1598 59.0527 5.91288 54.953 1.67351C53.9094 0.594296 52.5055 0 50.9997 0C49.494 0 48.09 0.594296 47.0468 1.67331C42.9467 5.91268 33.4227 13.1596 15.7019 14.0621C12.7653 14.2121 10.4648 16.6413 10.4648 19.5927V61.2514C10.4648 73.2491 16.92 84.4293 27.3117 90.4293L44.216 100.187C46.3085 101.396 48.6538 102 50.9999 102C53.3454 102 55.6915 101.396 57.7834 100.187L74.6881 90.4295C85.0794 84.4295 91.5348 73.2493 91.5348 61.2516V41.0001C91.5348 40.1747 90.8658 39.5059 90.0406 39.5059C89.2154 39.5059 88.5464 40.1747 88.5464 41.0001V61.2516C88.5464 72.185 82.6636 82.3737 73.1939 87.8415L56.289 97.5997C53.0267 99.4842 48.973 99.484 45.7102 97.5995L28.8057 87.8415C19.3361 82.3737 13.4533 72.185 13.4533 61.2516V19.5927C13.4533 18.2339 14.508 17.1155 15.8542 17.0467C34.5985 16.0922 44.7888 8.3068 49.1951 3.75086C49.6703 3.25937 50.3112 2.98861 50.9997 2.98861C51.6882 2.98861 52.3292 3.25937 52.8045 3.75106C57.2104 8.3068 67.4007 16.0922 86.1449 17.0467C87.4915 17.1157 88.5462 18.2339 88.5462 19.5927V34.0267C88.5462 34.8521 89.2152 35.5209 90.0404 35.5209Z" fill="black"/>
<path d="M20.0098 39.5059C19.1846 39.5059 18.5156 40.1747 18.5156 41.0002V61.2516C18.5156 70.3819 23.428 78.8911 31.3359 83.4586L48.241 93.2169C49.0801 93.7009 50.034 93.9567 50.9997 93.9567C51.9654 93.9567 52.9193 93.7009 53.759 93.2165L70.6639 83.4584C78.5716 78.8911 83.484 70.3819 83.484 61.2516V25.0998C83.484 23.3358 82.1677 21.841 80.423 21.6229C67.0212 19.9372 58.205 14.8457 53.1671 10.8699C51.891 9.86604 50.1086 9.86604 48.8309 10.8713C43.7948 14.8457 34.9784 19.9372 21.578 21.6227C19.8323 21.841 18.5158 23.3358 18.5158 25.0998V34.0272C18.5158 34.8526 19.1848 35.5214 20.01 35.5214C20.8352 35.5214 21.5042 34.8526 21.5042 34.0272V25.0998C21.5042 24.8396 21.6951 24.6196 21.9497 24.588C36.0335 22.8164 45.3482 17.4269 50.6805 13.2188C50.8682 13.0708 51.1308 13.0706 51.3175 13.2174C56.6514 17.4269 65.9661 22.8166 80.0513 24.5882C80.3045 24.6196 80.4956 24.8398 80.4956 25.0998V61.2516C80.4956 69.318 76.1556 76.8356 69.1697 80.8706L52.2658 90.6284C51.4942 91.0734 50.5052 91.0731 49.7348 90.6288L32.8305 80.8708C25.8444 76.8356 21.5042 69.3182 21.5042 61.2516V41.0002C21.504 40.1747 20.8352 39.5059 20.0098 39.5059Z" fill="black"/>
<path d="M32.8871 47.4949C34.1006 47.4949 35.2411 47.9672 36.099 48.8251L43.9068 56.6308C44.4905 57.2146 45.4362 57.2142 46.0198 56.6308L54.5726 48.078C55.1561 47.4943 55.1561 46.5483 54.5726 45.9648C53.9891 45.3814 53.0429 45.3814 52.4596 45.9648L44.9633 53.4613L38.2122 46.7121C36.7901 45.2898 34.8991 44.5066 32.8873 44.5066C30.8755 44.5066 28.9844 45.29 27.5623 46.7119C26.1392 48.1352 25.3555 50.0268 25.3555 52.0386C25.3555 54.051 26.1394 55.9423 27.5623 57.364L39.6365 69.4382C41.0578 70.8619 42.9495 71.6458 44.9635 71.6458C46.9761 71.6458 48.8671 70.8617 50.2874 69.4392L74.4372 45.289C75.8607 43.8667 76.6446 41.9754 76.6446 39.9634C76.6446 37.9514 75.8609 36.0598 74.4378 34.6367C73.0157 33.2146 71.1246 32.4316 69.1128 32.4316C67.101 32.4316 65.21 33.2148 63.7879 34.6367L57.3907 41.0337C56.8071 41.6174 56.8071 42.5634 57.3907 43.1469C57.9742 43.7302 58.9204 43.7302 59.5037 43.1469L65.9009 36.7497C66.7586 35.892 67.8991 35.4199 69.1128 35.4199C70.3263 35.4199 71.4669 35.892 72.3248 36.7499C73.1835 37.6086 73.6564 38.7498 73.6564 39.9634C73.6564 41.1769 73.1837 42.3173 72.3248 43.1754L48.1734 67.327C47.3167 68.1851 46.1768 68.6576 44.9635 68.6576C43.7488 68.6576 42.608 68.1851 41.7505 67.326L29.6749 55.2504C28.8167 54.3927 28.3439 53.2521 28.3439 52.0386C28.3439 50.8249 28.8169 49.6838 29.6755 48.8251C30.533 47.9672 31.6736 47.4949 32.8871 47.4949Z" fill="black"/>
</g>
<defs>
<clipPath id="clip0">
<rect width="102" height="102" fill="white"/>
</clipPath>
</defs>
</svg>

<svg width="102" height="102" fill="none" xmlns="http://www.w3.org/2000/svg"><g clip-path="url(#clip0)"><path d="M57.036 98.893l16.904-9.759a32.198 32.198 0 0016.1-27.884V19.592c0-2.145-1.676-3.929-3.82-4.038-18.113-.923-27.95-8.3-32.341-12.842a4.013 4.013 0 00-5.76 0c-4.391 4.542-14.228 11.92-32.342 12.842-2.143.109-3.818 1.893-3.818 4.038V61.25a32.198 32.198 0 0016.1 27.884l16.903 9.759a12.073 12.073 0 0012.074 0z" fill="#EAB14D"/><path d="M39.328 84.606a51.53 51.53 0 01-21.336-4.593 32.168 32.168 0 0010.068 9.122l16.903 9.758a12.075 12.075 0 0012.074 0l16.903-9.758a32.198 32.198 0 0016.1-27.885V43.078C85.307 66.76 64.403 84.606 39.328 84.606z" fill="#E7A52E"/><path d="M51 92.462a4.032 4.032 0 01-2.012-.54l-16.904-9.758C24.636 77.864 20.01 69.85 20.01 61.25V25.1c0-1.011.75-1.869 1.754-1.995C35.18 21.417 44.2 16.43 49.758 12.045a2.005 2.005 0 012.485 0c5.558 4.384 14.578 9.372 27.994 11.06A2.01 2.01 0 0181.99 25.1v36.15c0 8.6-4.627 16.614-12.075 20.914l-16.903 9.758a4.03 4.03 0 01-2.013.54z" fill="#FFE07D"/><path d="M32.485 77.764c-2.127 0-4.224-.131-6.284-.38a24.035 24.035 0 005.882 4.78l16.904 9.759a4.03 4.03 0 004.024 0l16.904-9.759c7.448-4.3 12.075-12.313 12.075-20.913v-20.2c-6.431 21.245-26.16 36.713-49.505 36.713z" fill="#FFD064"/><path d="M44.962 70.151a6.018 6.018 0 01-4.269-1.768L28.618 56.308a6.038 6.038 0 018.538-8.539l7.806 7.806 19.881-19.88a6.037 6.037 0 118.539 8.538l-24.15 24.15a6.017 6.017 0 01-4.27 1.768z" fill="#95D6A4"/><path d="M73.382 35.693a6.013 6.013 0 00-2.079-1.357 6.038 6.038 0 01-1.356 6.46l-24.15 24.15a6.019 6.019 0 01-4.27 1.769 6.02 6.02 0 01-4.27-1.769l3.436 3.436a6.018 6.018 0 004.27 1.768c1.545 0 3.09-.59 4.269-1.768l24.15-24.15a6.038 6.038 0 000-8.54z" fill="#78C2A4"/><path d="M90.04 35.52c.826 0 1.495-.668 1.495-1.493V19.593c0-2.951-2.3-5.38-5.238-5.53-17.72-.903-27.244-8.15-31.344-12.39A5.453 5.453 0 0051 0c-1.506 0-2.91.594-3.953 1.673-4.1 4.24-13.624 11.487-31.345 12.39a5.526 5.526 0 00-5.237 5.53V61.25c0 11.998 6.455 23.178 16.847 29.178l16.904 9.758A13.556 13.556 0 0051 102c2.345 0 4.691-.604 6.783-1.813l16.905-9.757c10.391-6 16.847-17.18 16.847-29.178V41a1.494 1.494 0 10-2.989 0v20.252c0 10.933-5.882 21.122-15.352 26.59L56.289 97.6a10.604 10.604 0 01-10.579 0l-16.904-9.758c-9.47-5.468-15.353-15.657-15.353-26.59v-41.66a2.539 2.539 0 012.401-2.545C34.6 16.092 44.79 8.307 49.195 3.75A2.488 2.488 0 0151 2.989c.688 0 1.33.27 1.804.762 4.406 4.556 14.597 12.341 33.34 13.296a2.54 2.54 0 012.402 2.546v14.434c0 .825.67 1.494 1.494 1.494z" fill="#000"/><path d="M20.01 39.506c-.825 0-1.494.669-1.494 1.494v20.252c0 9.13 4.912 17.64 12.82 22.207l16.905 9.758a5.53 5.53 0 002.759.74 5.53 5.53 0 002.759-.74l16.905-9.759c7.908-4.567 12.82-13.076 12.82-22.206V25.1a3.506 3.506 0 00-3.061-3.477c-13.402-1.686-22.218-6.777-27.256-10.753a3.496 3.496 0 00-4.336.001c-5.036 3.975-13.853 9.066-27.253 10.752a3.506 3.506 0 00-3.062 3.477v8.927a1.494 1.494 0 102.988 0V25.1c0-.26.191-.48.446-.512 14.083-1.772 23.398-7.161 28.73-11.37a.514.514 0 01.638 0c5.333 4.209 14.648 9.599 28.733 11.37a.513.513 0 01.445.512v36.152c0 8.066-4.34 15.584-11.326 19.619l-16.904 9.757a2.568 2.568 0 01-2.531 0L32.83 80.872a22.72 22.72 0 01-11.327-19.62v-20.25c0-.826-.669-1.495-1.494-1.495z" fill="#000"/><path d="M32.887 47.495c1.214 0 2.354.472 3.212 1.33l7.808 7.806c.584.584 1.53.583 2.113 0l8.553-8.553a1.494 1.494 0 00-2.113-2.113l-7.497 7.496-6.75-6.749a7.48 7.48 0 00-5.326-2.205 7.482 7.482 0 00-5.325 2.205 7.484 7.484 0 00-2.207 5.327c0 2.012.784 3.903 2.207 5.325l12.074 12.074a7.476 7.476 0 005.328 2.208 7.474 7.474 0 005.323-2.207l24.15-24.15a7.479 7.479 0 002.208-5.326 7.484 7.484 0 00-2.207-5.326 7.481 7.481 0 00-5.325-2.205 7.482 7.482 0 00-5.325 2.205l-6.397 6.397a1.494 1.494 0 102.113 2.113L65.9 36.75a4.512 4.512 0 013.212-1.33c1.213 0 2.354.472 3.212 1.33.858.859 1.331 2 1.331 3.213a4.51 4.51 0 01-1.331 3.212L48.173 67.327a4.505 4.505 0 01-3.21 1.33 4.508 4.508 0 01-3.212-1.331L29.675 55.25a4.511 4.511 0 01-1.331-3.211c0-1.214.473-2.355 1.331-3.214a4.51 4.51 0 013.212-1.33z" fill="#000"/></g><defs><clipPath id="clip0"><path fill="#fff" d="M0 0h102v102H0z"/></clipPath></defs></svg>
